svg/fluentui-system-icons/ic_fluent_text_number_list_rtl_90_20_filled.svg

<svg width="20" height="20" viewBox="0 0 20 20" fill="none" xmlns="http://www.w3.org/2000/svg">
<path d="M4.24988 2C4.66409 2 4.99988 2.33563 4.99988 2.74965L4.99988 10.2462C4.99988 10.6602 4.66409 10.9958 4.24988 10.9958C3.83566 10.9958 3.49988 10.6602 3.49988 10.2462L3.49988 2.74965C3.49988 2.33563 3.83567 2 4.24988 2ZM9.24988 2C9.66409 2 9.99988 2.33563 9.99988 2.74965V10.2462C9.99988 10.6602 9.66409 10.9958 9.24988 10.9958C8.83566 10.9958 8.49988 10.6602 8.49988 10.2462L8.49988 2.74965C8.49988 2.33563 8.83567 2 9.24988 2ZM14.2499 2C14.6641 2 14.9999 2.33563 14.9999 2.74965V10.2462C14.9999 10.6602 14.6641 10.9958 14.2499 10.9958C13.8357 10.9958 13.4999 10.6602 13.4999 10.2462V2.74965C13.4999 2.33563 13.8357 2 14.2499 2ZM3.5 14.7444C3.77614 14.7444 4 14.9681 4 15.2441C4 15.5868 4.09668 15.7761 4.1831 15.8715C4.26847 15.9657 4.37444 16.0044 4.48126 16.0004C4.67474 15.9931 5 15.8146 5 15.2441C5 14.8318 4.89831 14.6183 4.83398 14.5218C4.80027 14.4713 4.77102 14.4441 4.75803 14.4333L4.75293 14.4292C4.76038 14.4335 4.76797 14.4375 4.7757 14.4414L4.77368 14.4404L4.77113 14.4391L4.76651 14.4366L4.75911 14.4326C4.75497 14.4302 4.75111 14.4278 4.75111 14.4278L4.75019 14.4272L4.75293 14.4292C4.52317 14.299 4.43328 14.0101 4.55279 13.7712C4.67628 13.5244 4.97662 13.4243 5.22361 13.5477L5.22503 13.5484L5.2265 13.5492L5.22959 13.5508L5.23636 13.5543L5.25212 13.563C5.26359 13.5695 5.27693 13.5774 5.29186 13.587C5.32172 13.6062 5.35799 13.6319 5.39822 13.6655C5.47899 13.7327 5.57473 13.8305 5.66603 13.9674C5.85169 14.2458 6 14.6569 6 15.2441C6 16.273 5.32526 16.969 4.51874 16.9992C4.15126 17.013 3.78304 16.8813 3.5 16.603C3.21696 16.8813 2.84874 17.013 2.48126 16.9992C1.67474 16.969 1 16.273 1 15.2441C1 14.6569 1.14831 14.2458 1.33398 13.9674C1.42527 13.8305 1.52102 13.7327 1.60178 13.6655C1.64201 13.6319 1.67828 13.6062 1.70814 13.587C1.72307 13.5774 1.73641 13.5695 1.74788 13.563L1.76364 13.5543L1.77041 13.5508L1.7735 13.5492L1.77497 13.5484L1.77639 13.5477C2.02338 13.4243 2.32372 13.5243 2.44721 13.7712C2.56672 14.0101 2.47683 14.299 2.24707 14.4292L2.24197 14.4333C2.22899 14.4441 2.19973 14.4713 2.16603 14.5218C2.10169 14.6183 2 14.8318 2 15.2441C2 15.8146 2.32526 15.9931 2.51874 16.0004C2.62556 16.0044 2.73153 15.9657 2.8169 15.8715C2.90332 15.7761 3 15.5868 3 15.2441C3 14.9681 3.22386 14.7444 3.5 14.7444ZM10.6464 13.6413C10.8416 13.4461 11.1582 13.446 11.3535 13.6412L11.3547 13.6424L11.3561 13.6439L11.3595 13.6473L11.3684 13.6565C11.3752 13.6637 11.3838 13.673 11.3939 13.6843C11.4142 13.7069 11.4406 13.7378 11.4712 13.7766C11.5321 13.8541 11.6104 13.9647 11.688 14.1056C11.843 14.387 12 14.7988 12 15.3112L11.9999 15.3196C11.9936 15.6937 11.8966 16.0997 11.6549 16.4259C11.3995 16.7706 11.0043 16.9932 10.4999 16.9932C9.95217 16.9932 9.56901 16.751 9.29547 16.423C9.08637 16.1721 8.92841 15.8503 8.79991 15.5885C8.77929 15.5465 8.75941 15.506 8.74018 15.4675C8.58456 15.1564 8.44743 14.9205 8.26513 14.7549C8.19202 14.6884 8.1066 14.6289 7.99988 14.5836V16.4935C7.99988 16.7695 7.77603 16.9932 7.49988 16.9932C7.22374 16.9932 6.99988 16.7689 6.99988 16.4929L6.99988 13.9946C6.99988 13.7186 7.22374 13.4949 7.49988 13.4949C8.1191 13.4949 8.58419 13.6939 8.9378 14.0153C9.27113 14.3181 9.47775 14.7069 9.63461 15.0205C9.65973 15.0707 9.6838 15.1193 9.70649 15.1652C9.84027 15.4353 9.93756 15.6318 10.0637 15.7831C10.1808 15.9235 10.2976 15.9937 10.4999 15.9937C10.6805 15.9937 10.7803 15.9268 10.8512 15.8311C10.9352 15.7177 10.9955 15.5341 11 15.307C10.9992 15.0045 10.9066 14.7594 10.812 14.5876C10.7645 14.5015 10.7178 14.4361 10.685 14.3943C10.6687 14.3736 10.6561 14.359 10.649 14.3511L10.643 14.3445C10.4512 14.1491 10.4523 13.8353 10.6464 13.6413ZM17.9866 15.6089C17.9333 15.8344 17.7319 15.9938 17.5 15.9938H13.5C13.2239 15.9938 13 15.77 13 15.494C13 15.218 13.2239 14.9943 13.5 14.9943H16.0818C15.8891 14.7763 15.7027 14.5179 15.5528 14.2182C15.4293 13.9714 15.5294 13.6712 15.7764 13.5477C16.0234 13.4243 16.3237 13.5244 16.4472 13.7712C16.654 14.1846 16.9712 14.5062 17.2499 14.729C17.3874 14.8389 17.5107 14.921 17.598 14.9747C17.6383 14.9995 17.679 15.0236 17.7209 15.0456C17.9251 15.1535 18.0406 15.3802 17.9866 15.6089Z" fill="#212121"/>
</svg>

<svg xmlns="http://www.w3.org/2000/svg" width="20" height="20"><path d="M4.25 2a.75.75 0 0 1 .75.75v7.496a.75.75 0 0 1-1.5 0V2.75A.75.75 0 0 1 4.25 2Zm5 0a.75.75 0 0 1 .75.75v7.496a.75.75 0 0 1-1.5 0V2.75A.75.75 0 0 1 9.25 2Zm5 0a.75.75 0 0 1 .75.75v7.496a.75.75 0 0 1-1.5 0V2.75a.75.75 0 0 1 .75-.75ZM3.5 14.744a.5.5 0 0 1 .5.5c0 .343.097.532.183.627a.374.374 0 0 0 .298.13c.194-.008.519-.186.519-.757 0-.412-.102-.626-.166-.722a.415.415 0 0 0-.076-.089l-.005-.004a.459.459 0 0 0 .023.012h-.002l-.003-.002-.004-.002-.008-.004-.008-.005.002.001a.5.5 0 0 1 .47-.881h.002l.002.001.003.002.006.003.016.009a.826.826 0 0 1 .146.102c.081.068.177.166.268.302.186.279.334.69.334 1.277C6 16.273 5.325 16.97 4.519 17a1.371 1.371 0 0 1-1.019-.396c-.283.278-.651.41-1.019.396C1.675 16.97 1 16.273 1 15.244c0-.587.148-.998.334-1.277a1.405 1.405 0 0 1 .374-.38.826.826 0 0 1 .04-.024l.016-.009.006-.003.004-.002h.001l.001-.001a.5.5 0 0 1 .471.881l-.005.004a.415.415 0 0 0-.076.089c-.064.096-.166.31-.166.722 0 .57.325.75.519.756a.374.374 0 0 0 .298-.129c.086-.095.183-.284.183-.627a.5.5 0 0 1 .5-.5Zm7.146-1.103a.5.5 0 0 1 .707 0l.002.001.001.002.004.003.008.01a1.382 1.382 0 0 1 .103.12A2.495 2.495 0 0 1 12 15.312v.008c-.006.374-.103.78-.345 1.106-.255.345-.65.567-1.155.567-.548 0-.931-.242-1.205-.57-.209-.25-.367-.573-.495-.834a3.49 3.49 0 0 0-.06-.122c-.155-.31-.293-.546-.475-.712A.927.927 0 0 0 8 14.584v1.91a.5.5 0 1 1-1-.001v-2.498a.5.5 0 0 1 .5-.5c.62 0 1.084.199 1.438.52.333.303.54.692.697 1.005l.071.145c.134.27.232.467.358.618a.51.51 0 0 0 .436.21c.18 0 .28-.066.351-.162.084-.113.144-.297.149-.524a1.496 1.496 0 0 0-.351-.956l-.006-.007a.5.5 0 0 1 .003-.703Zm7.34 1.968a.5.5 0 0 1-.486.385h-4a.5.5 0 1 1 0-1h2.582a3.624 3.624 0 0 1-.53-.776.5.5 0 1 1 .895-.447c.207.414.524.735.803.958a3.51 3.51 0 0 0 .47.317c.205.107.32.334.267.563Z"/></svg>
